frontend/public/svg/files/file-form.svg

<svg width="142" height="174" viewBox="0 0 142 174" fill="none" xmlns="http://www.w3.org/2000/svg">
<g clip-path="url(#clip0)">
<path d="M141.131 92.1921C141.311 108.696 141.551 125.2 141.638 141.704C141.669 147.538 141.211 153.372 141.178 159.207C141.133 167.576 134.667 172.676 127.049 172.841C111.448 173.179 95.84 173.539 80.2375 173.462C62.1588 173.373 44.0806 172.895 26.0063 172.417C21.6324 172.223 17.2753 171.751 12.9616 171.003C7.99972 170.231 3.12713 164.299 2.86197 158.9C2.59943 153.523 2.38674 148.141 2.31651 142.758C1.99097 117.716 1.69815 92.6739 1.43825 67.6319C1.2781 52.9206 1.21648 38.208 0.990696 23.4975C0.925062 19.3278 0.623779 15.1447 2.31122 11.2296C3.21609 8.94785 4.44412 6.80819 5.95777 4.87582C7.82113 2.65609 10.5706 1.81459 13.5103 1.73386C19.5703 1.56715 25.6408 1.52787 31.6864 1.12816C53.0213 -0.280999 74.3528 0.819983 95.687 0.978816C100.224 1.01229 103.675 2.49382 107.022 5.67509C113.854 12.1676 121.186 18.1309 128.27 24.3602C130.967 26.7316 133.469 29.3277 136.206 31.6459C138.731 33.7862 139.712 36.4788 139.807 39.6489C139.974 45.2599 140.24 50.8726 140.319 56.481C140.485 68.3841 140.558 80.2901 140.67 92.1941L141.131 92.1921ZM93.829 9.36187C91.8455 9.20632 90.1876 8.98756 88.5257 8.95934C74.3817 8.72221 60.2373 8.50693 46.0923 8.31265C39.6983 8.22404 33.3035 8.18473 26.9088 8.14535C23.6593 8.125 20.4031 8.02281 17.1621 8.19215C12.6419 8.42777 11.2453 9.73401 10.4321 14.1755C9.62173 18.3692 9.43027 22.6593 9.86379 26.9087C10.1312 29.3632 10.2658 31.8304 10.2668 34.2995C10.335 73.9295 10.3864 113.559 10.4209 153.189C10.3998 153.975 10.4301 154.761 10.5116 155.542C11.1909 160.65 13.885 164.06 19.6858 164.289C41.3508 165.142 63.0147 165.151 84.6855 164.784C95.5748 164.599 106.465 164.507 117.355 164.383C120.046 164.353 122.743 164.453 125.428 164.325C130.119 164.101 132.47 161.752 132.428 157.164C132.344 148.19 132.131 139.217 131.953 130.245C131.861 125.644 131.765 121.042 131.608 116.442C131.239 105.562 130.653 94.6849 130.493 83.8015C130.31 71.5673 130.497 59.3278 130.511 47.0911C130.511 46.3402 130.416 45.5887 130.363 44.8201C129.982 44.7315 129.594 44.6715 129.204 44.6413C122.357 44.7791 115.512 44.9942 108.665 45.0349C106.534 45.0507 104.41 44.8058 102.338 44.3048C98.1148 43.2638 96.7858 41.6316 96.3394 37.2998C95.9371 33.3946 95.6759 29.4744 95.3254 25.5633C94.8528 20.3225 94.3573 15.0811 93.829 9.36378V9.36187ZM125.226 35.7468L125.381 35.0392L103.144 14.8606L102.633 15.1888C103.724 22.354 104.815 29.5192 105.94 36.9056L125.226 35.7468Z" fill="black"/>
<path d="M22.3865 38.9465C22.3865 35.6983 22.2994 32.4483 22.4083 29.2034C22.5527 24.9241 23.8036 23.6701 28.1132 23.3919C34.1423 23.0026 40.1774 22.6929 46.2098 22.3516C48.9237 22.1987 50.8953 23.533 51.5037 26.4556C52.0564 29.4243 52.4436 32.4212 52.6635 35.4328C53.036 38.659 53.2331 41.9035 53.2542 45.151C53.1614 47.3675 52.7733 49.5614 52.1003 51.6753C51.4295 53.96 49.5407 55.0688 47.2343 55.139C41.301 55.3208 35.3612 55.5524 29.4298 55.4441C23.8825 55.3424 22.8264 54.1408 22.4319 48.684C22.3105 47.009 22.2219 45.3294 22.176 43.6505C22.1333 42.0838 22.1667 40.5152 22.1667 38.9478L22.3865 38.9465ZM30.0658 47.0566C32.6571 47.9046 39.2231 47.6676 43.3239 46.5925V29.6213C39.7796 28.8337 31.3437 28.8993 28.824 29.7578L30.0658 47.0566Z" fill="black"/>
<path d="M69.2056 78.6196C82.5469 78.8887 95.8896 79.1329 109.23 79.465C110.679 79.5201 112.106 79.843 113.438 80.4173C114.072 80.6773 114.608 81.1301 114.971 81.7116C115.333 82.2938 115.503 82.9744 115.457 83.6583C115.469 84.3449 115.257 85.0156 114.853 85.5702C114.449 86.1255 113.875 86.5337 113.219 86.7333C111.394 87.2229 109.513 87.4684 107.623 87.4625C97.1957 87.2282 86.7738 86.7582 76.3465 86.583C66.8158 86.4222 57.2799 86.5541 47.7466 86.5173C41.915 86.4944 36.0821 86.4471 30.2532 86.2948C28.6926 86.1806 27.1472 85.9122 25.6398 85.4921C25.0796 85.3845 24.5779 85.076 24.2288 84.6251C23.8797 84.1742 23.7072 83.6111 23.7436 83.042C23.6921 82.4736 23.8464 81.9059 24.1782 81.4412C24.51 80.9772 24.9973 80.6477 25.5517 80.5119C26.6226 80.1988 27.7284 80.0203 28.8434 79.9802C42.2948 79.6179 55.7474 79.2786 69.201 78.9622C69.2023 78.8474 69.2036 78.7338 69.2056 78.6196Z" fill="black"/>
<path d="M23.3169 99.1059C24.1117 96.6085 26.0218 96.302 27.9606 96.1733C32.1047 95.899 36.252 95.557 40.402 95.496C62.6366 95.1691 84.8723 94.8909 107.109 94.6625C108.676 94.6211 110.242 94.7786 111.769 95.1311C112.582 95.2945 113.315 95.7283 113.851 96.3617C114.386 96.9951 114.692 97.7906 114.717 98.6195C114.744 99.4485 114.488 100.262 113.993 100.927C113.499 101.593 112.794 102.071 111.993 102.285C110.607 102.714 109.171 102.954 107.721 102.997C102.442 103.029 97.1635 102.951 91.8852 102.865C72.4576 102.539 53.03 102.194 33.6024 101.828C31.1412 101.78 28.68 101.456 26.2299 101.162C24.7104 100.974 24.7201 100.89 23.3169 99.1059Z" fill="black"/>
<path d="M75.4415 72.8886C65.897 72.8886 56.3513 72.7954 46.8088 72.9299C42.4382 72.991 38.0793 73.5252 33.7075 73.795C31.5803 73.9262 29.4413 74.0319 27.3154 73.9919C25.2604 73.9505 24.1085 73.1025 23.9786 71.826C23.8473 70.5021 24.7663 69.4763 26.8495 69.1967C32.5202 68.4366 38.1929 67.5447 43.8945 67.1955C64.0756 65.9596 84.2857 65.6853 104.502 65.8441C106.297 65.8224 108.093 65.9281 109.874 66.1611C111.869 66.4643 112.905 67.6707 112.874 69.2164C112.843 70.762 111.786 71.9126 109.784 72.1469C107.332 72.4396 104.866 72.5965 102.397 72.6175C93.4114 72.6707 84.4261 72.6385 75.4408 72.6385L75.4415 72.8886Z" fill="black"/>
<path d="M99.8012 136.229C96.7729 136.229 93.7446 136.274 90.7175 136.217C87.9091 136.164 86.5248 135.186 86.5032 133.4C86.4815 131.614 87.8283 130.668 90.6414 130.483C96.236 130.118 101.83 129.727 107.428 129.416C108.879 129.328 110.336 129.394 111.774 129.613C112.456 129.681 113.092 129.989 113.567 130.483C114.043 130.978 114.327 131.625 114.369 132.309C114.537 133.927 113.945 135.296 112.438 135.881C111.082 136.397 109.654 136.694 108.206 136.761C105.41 136.892 102.603 136.8 99.8006 136.8C99.8006 136.611 99.8012 136.42 99.8012 136.229Z" fill="black"/>
</g>
<defs>
<clipPath id="clip0">
<rect width="141.113" height="173.93" fill="white" transform="translate(0.587891 0.0107422)"/>
</clipPath>
</defs>
</svg>

<svg xmlns="http://www.w3.org/2000/svg" width="142" height="174" fill="none" viewBox="0 0 142 174"><g fill="#000" clip-path="url(#a)"><path d="M141.131 92.192c.18 16.504.42 33.008.507 49.512.031 5.834-.427 11.668-.46 17.503-.045 8.369-6.511 13.469-14.129 13.634-15.601.338-31.209.698-46.812.621-18.078-.089-36.156-.567-54.23-1.045a103 103 0 0 1-13.045-1.414c-4.962-.772-9.835-6.704-10.1-12.103-.263-5.377-.475-10.759-.545-16.142q-.489-37.563-.879-75.126c-.16-14.711-.222-29.424-.447-44.134-.066-4.17-.367-8.353 1.32-12.268a25.6 25.6 0 0 1 3.647-6.354c1.863-2.22 4.613-3.061 7.552-3.142 6.06-.167 12.13-.206 18.176-.606C53.021-.28 74.353.82 95.687.978c4.537.034 7.988 1.516 11.335 4.697 6.832 6.493 14.164 12.456 21.248 18.685 2.697 2.372 5.199 4.968 7.936 7.286 2.525 2.14 3.506 4.833 3.601 8.003.167 5.61.433 11.224.512 16.832.166 11.903.239 23.81.351 35.713zM93.829 9.362c-1.983-.156-3.641-.374-5.303-.403q-21.216-.355-42.434-.646c-6.394-.089-12.788-.128-19.183-.168-3.25-.02-6.506-.122-9.747.047-4.52.236-5.917 1.542-6.73 5.983a43.7 43.7 0 0 0-.568 12.734 69 69 0 0 1 .403 7.39q.102 59.445.154 118.89-.03 1.18.09 2.353c.68 5.108 3.374 8.518 9.175 8.747 21.665.853 43.329.862 65 .495 10.889-.185 21.779-.277 32.669-.401 2.691-.03 5.388.07 8.073-.058 4.691-.224 7.042-2.573 7-7.161-.084-8.974-.297-17.947-.475-26.919-.092-4.601-.188-9.203-.345-13.803-.369-10.88-.955-21.757-1.115-32.64-.183-12.235.004-24.474.018-36.71 0-.752-.095-1.503-.148-2.272a8 8 0 0 0-1.159-.179c-6.847.138-13.692.353-20.539.394a26 26 0 0 1-6.327-.73c-4.223-1.041-5.552-2.673-5.999-7.005-.402-3.905-.663-7.826-1.014-11.737-.472-5.24-.968-10.482-1.496-16.2zm31.397 26.385.155-.708-22.237-20.178-.511.328 3.307 21.717z"/><path d="M22.387 38.947c0-3.249-.088-6.499.021-9.744.145-4.279 1.396-5.533 5.705-5.811 6.03-.39 12.064-.7 18.097-1.04 2.714-.153 4.685 1.181 5.294 4.104.552 2.968.94 5.965 1.16 8.977.372 3.226.57 6.47.59 9.718a25 25 0 0 1-1.154 6.524c-.67 2.285-2.56 3.394-4.866 3.464-5.933.182-11.873.413-17.804.305-5.547-.102-6.604-1.303-6.998-6.76-.121-1.675-.21-3.355-.256-5.033-.043-1.567-.01-3.136-.01-4.703zm7.679 8.11c2.591.848 9.157.61 13.258-.465v-16.97c-3.544-.788-11.98-.723-14.5.136zm39.14 31.563c13.34.269 26.684.513 40.024.845 1.449.055 2.876.378 4.208.952a3.27 3.27 0 0 1 1.533 1.295 3.27 3.27 0 0 1 .486 1.946 3.15 3.15 0 0 1-2.238 3.075c-1.825.49-3.706.735-5.596.73-10.427-.235-20.85-.705-31.276-.88-9.531-.16-19.067-.029-28.6-.066-5.832-.023-11.665-.07-17.494-.222a23.6 23.6 0 0 1-4.613-.803 2.344 2.344 0 0 1-1.896-2.45 2.384 2.384 0 0 1 1.808-2.53 13.5 13.5 0 0 1 3.291-.532q20.178-.543 40.358-1.018zM23.317 99.106c.795-2.497 2.705-2.804 4.644-2.933 4.144-.274 8.291-.616 12.441-.677q33.352-.49 66.707-.834a18.5 18.5 0 0 1 4.66.47 3.676 3.676 0 0 1 .224 7.153 16 16 0 0 1-4.272.712c-5.279.032-10.558-.046-15.836-.132q-29.14-.488-58.283-1.037c-2.46-.048-4.922-.372-7.372-.666-1.52-.188-1.51-.272-2.913-2.056m52.125-26.217c-9.545 0-19.09-.094-28.633.04-4.37.062-8.73.596-13.101.866-2.128.131-4.267.237-6.393.197-2.055-.041-3.207-.89-3.336-2.166-.132-1.324.787-2.35 2.87-2.63 5.671-.76 11.344-1.651 17.046-2 20.18-1.236 40.39-1.51 60.607-1.352a38 38 0 0 1 5.372.317c1.995.303 3.031 1.51 3 3.055s-1.088 2.697-3.09 2.93c-2.452.294-4.918.45-7.387.472-8.986.053-17.97.02-26.956.02zm24.359 63.34c-3.028 0-6.056.045-9.083-.012-2.809-.053-4.193-1.031-4.215-2.817s1.325-2.732 4.138-2.917c5.595-.365 11.189-.756 16.787-1.067a20.6 20.6 0 0 1 4.346.197 2.884 2.884 0 0 1 2.595 2.696c.168 1.618-.424 2.987-1.931 3.572a13.7 13.7 0 0 1-4.232.88c-2.796.131-5.603.039-8.405.039z"/></g><defs><clipPath id="a"><path fill="#fff" d="M.588.01H141.7v173.93H.588z"/></clipPath></defs></svg>
